X:1
T:Portugal, LM
T:Portugal, LM
T:Thomas Thorley, 1789
T:Public Domain Courtesy of the Cyber Hymnal™
C:Thomas Thorley, 1789
Z:Public Domain
Z:Courtesy of the Cyber Hymnal™
%%score ( 1 2 ) ( 3 4 )
L:1/8
Q:1/4=160
M:4/4
K:A
V:1 treble 
V:2 treble 
V:3 bass 
V:4 bass 
V:1
 E4 | [EA]4 [GB]4 | (c2 A2) (c2 e2) | (d2 c2) [EB]4 | !fermata![EA]4 [Ec]4 | [EB]4 A4 | %6
 (3(B2 A2 B2) G4 (3:2:1B2 x/24 | A2 G2 [^DF]4 | !fermata!E4 [ce]4 | ([ce]2 [Ac]2) ([ce]2 [df]2) | %10
 ([Bd]2 [GB]2 [Ac]2 [ce]2) | (c2 A2) (e2 c2) | ([Ac]2 !fermata![GB]2) E4 | [EA]4 [GB]4 | %14
 (c2 A2) ([Ec]2 [Ae]2) | ([Ad]2 [Fc]2) [EB]4 | !fermata![EA]4 |] %17
V:2
 E4 | x8 | A4 E4 | F4 x4 | x8 | x4 A4 | G4 (3:2:2E2 G2 x65/24 | E4 x4 | E4 x4 | x8 | x8 | A4 A4 | %12
 x4 E4 | x8 | A4 x4 | x8 | x4 |] %17
V:3
 [E,A,]4 | [A,,C]4 [E,E]4 | (E2 C2) (C2 E2) | [D,F]4 (E2 D2) | !fermata![A,,C]4 [A,E]4 | %5
 [E,E]4 [F,C]4 | [E,E]4 [E,B,]4 x11/8 | [A,,E]4 [B,,^D]4 | !fermata![E,E]4 [A,C]4 | %9
 (C2 E2) (E2 D2) | (D2 F2) (F2 E2) | (E2 C2) [A,,A,]4 | !fermata![E,E]4 [E,E]4 | (E2 C2) [E,E]4 | %14
 A,4 [A,C]4 | (A,2 C2) [E,E]4 | !fermata![A,,C]4 |] %17
V:4
 x4 | x8 | A,4 A,4 | x4 E,4 | x8 | x8 | x75/8 | x8 | x8 | A,4 A,4 | E,4 A,4 | A,4 x4 | x8 | %13
 A,,4 x4 | A,4 x4 | D,4 x4 | x4 |] %17

